src/images/dots.svg

<svg width="218" height="9" viewBox="0 0 218 9" fill="none" xmlns="http://www.w3.org/2000/svg">
<path fill-rule="evenodd" clip-rule="evenodd" d="M5.80928 3.71482C4.8214 5.72083 0.714824 4.64566 0.999692 2.14389C2.28999 0.536053 6.09476 1.31305 5.80928 3.71482Z" fill="#FBD83F"/>
<path fill-rule="evenodd" clip-rule="evenodd" d="M70.4174 4.92393C71.0089 3.52032 69.9089 3.52698 70.1028 2.52579C70.5889 0.222802 74.1919 0.701011 74.7028 2.49795C75.1136 4.2955 72.2294 6.913 70.4174 4.92393Z" fill="#FBD83F"/>
<path fill-rule="evenodd" clip-rule="evenodd" d="M15.5043 2.85613C15.5212 5.65608 11.1195 5.3827 10.4074 3.38698C10.2923 0.887628 14.8934 1.05979 15.5043 2.85613Z" fill="#FBD83F"/>
<path fill-rule="evenodd" clip-rule="evenodd" d="M20.8105 3.92404C21.4754 -1.88009 27.9134 4.38108 23.7202 5.50647C22.522 5.81372 21.7148 4.61859 20.8105 3.92404Z" fill="#FBD83F"/>
<path fill-rule="evenodd" clip-rule="evenodd" d="M64.5034 2.55968C64.4143 4.36025 63.7215 5.56446 62.6228 5.77112C57.2295 6.90377 60.7732 -2.41784 64.5034 2.55968Z" fill="#FBD83F"/>
<path fill-rule="evenodd" clip-rule="evenodd" d="M50.2983 1.84559C53.4898 0.426252 55.1212 5.61648 52.2243 6.13401C50.5261 6.44429 47.0074 3.36553 50.2983 1.84559Z" fill="#FBD83F"/>
<path fill-rule="evenodd" clip-rule="evenodd" d="M29.9171 4.96897C29.6966 1.57024 34.1959 1.44302 34.5104 3.84116C34.7213 5.63992 31.3298 7.06046 29.9171 4.96897Z" fill="#FBD83F"/>
<path fill-rule="evenodd" clip-rule="evenodd" d="M85.4061 2.93319C85.6316 7.13191 80.0256 6.16581 80.3093 3.46404C80.4978 1.56287 84.1953 1.14049 85.4061 2.93319Z" fill="#FBD83F"/>
<path fill-rule="evenodd" clip-rule="evenodd" d="M40.1201 5.40725C39.0947 1.21338 43.5965 1.48615 44.1086 3.48308C44.62 5.38002 41.8316 7.29693 40.1201 5.40725Z" fill="#FBD83F"/>
<path fill-rule="evenodd" clip-rule="evenodd" d="M93.2013 2.08601C93.9007 1.98178 95.6013 2.07149 95.9092 3.36965C96.6267 6.26537 91.9286 6.5938 91.3159 4.49747C90.908 3.19991 91.2044 2.59811 93.2013 2.08601Z" fill="#FBD83F"/>
<path fill-rule="evenodd" clip-rule="evenodd" d="M103.605 2.62309C106.694 0.904366 108.723 5.59218 105.728 6.41032C104.03 6.82059 100.714 4.14061 103.605 2.62309Z" fill="#FBD83F"/>
<path fill-rule="evenodd" clip-rule="evenodd" d="M116.509 3.34501C117.237 7.84069 112.526 6.06916 112.514 4.16919C112.403 2.26983 115.2 1.7529 116.509 3.34501Z" fill="#FBD83F"/>
<path fill-rule="evenodd" clip-rule="evenodd" d="M168.17 4.04003C167.579 5.44364 168.678 5.43698 168.485 6.43817C167.998 8.74116 164.396 8.26295 163.885 6.46601C163.474 4.66846 166.358 2.05096 168.17 4.04003Z" fill="#FBD83F"/>
<path fill-rule="evenodd" clip-rule="evenodd" d="M217.777 5.03989C217.112 10.844 210.674 4.58285 214.867 3.45746C216.065 3.15021 216.873 4.34534 217.777 5.03989Z" fill="#FBD83F"/>
<path fill-rule="evenodd" clip-rule="evenodd" d="M174.085 6.40428C174.174 4.60371 174.866 3.3995 175.965 3.19284C181.358 2.06019 177.815 11.3818 174.085 6.40428Z" fill="#FBD83F"/>
<path fill-rule="evenodd" clip-rule="evenodd" d="M188.289 7.11834C185.098 8.53768 183.466 3.34745 186.363 2.82992C188.061 2.51963 191.58 5.5984 188.289 7.11834Z" fill="#FBD83F"/>
<path fill-rule="evenodd" clip-rule="evenodd" d="M208.67 3.99499C208.891 7.39372 204.392 7.52094 204.077 5.1228C203.866 3.32404 207.258 1.9035 208.67 3.99499Z" fill="#FBD83F"/>
<path fill-rule="evenodd" clip-rule="evenodd" d="M153.181 6.03073C152.956 1.83202 158.562 2.79812 158.278 5.49989C158.09 7.40106 154.392 7.82344 153.181 6.03073Z" fill="#FBD83F"/>
<path fill-rule="evenodd" clip-rule="evenodd" d="M198.467 3.55668C199.493 7.75055 194.991 7.47778 194.479 5.48085C193.967 3.58391 196.756 1.667 198.467 3.55668Z" fill="#FBD83F"/>
<path fill-rule="evenodd" clip-rule="evenodd" d="M145.387 6.87791C144.687 6.98215 142.987 6.89244 142.679 5.59427C141.961 2.69856 146.659 2.37013 147.272 4.46646C147.68 5.76402 147.383 6.36582 145.387 6.87791Z" fill="#FBD83F"/>
<path fill-rule="evenodd" clip-rule="evenodd" d="M134.983 6.34084C131.894 8.05956 129.865 3.37175 132.86 2.55361C134.558 2.14333 137.874 4.82332 134.983 6.34084Z" fill="#FBD83F"/>
<path fill-rule="evenodd" clip-rule="evenodd" d="M122.079 5.61892C121.351 1.12324 126.062 2.89477 126.074 4.79474C126.185 6.6941 123.388 7.21103 122.079 5.61892Z" fill="#FBD83F"/>
</svg>

<svg width="218" height="9" viewBox="0 0 218 9" fill="none" xmlns="http://www.w3.org/2000/svg"><path fill-rule="evenodd" clip-rule="evenodd" d="M5.81 3.715C4.82 5.72.714 4.645 1 2.144c1.29-1.608 5.095-.831 4.81 1.57zm64.607 1.209c.592-1.404-.508-1.397-.314-2.398.486-2.303 4.089-1.825 4.6-.028.41 1.797-2.474 4.415-4.286 2.426zM15.504 2.856c.017 2.8-4.384 2.527-5.097.531-.115-2.5 4.486-2.327 5.097-.53zm5.306 1.068c.665-5.804 7.103.457 2.91 1.582-1.198.308-2.005-.887-2.91-1.582zM64.503 2.56c-.089 1.8-.782 3.004-1.88 3.211-5.393 1.133-1.85-8.189 1.88-3.211zm-14.205-.714c3.192-1.42 4.823 3.77 1.926 4.288-1.698.31-5.217-2.768-1.926-4.288zM29.917 4.969c-.22-3.399 4.279-3.526 4.593-1.128.211 1.799-3.18 3.22-4.593 1.128zm55.489-2.036c.226 4.199-5.38 3.233-5.097.531.189-1.901 3.886-2.324 5.097-.53zM40.12 5.407c-1.025-4.194 3.477-3.92 3.989-1.924.511 1.897-2.277 3.814-3.989 1.924zm53.081-3.321c.7-.104 2.4-.015 2.708 1.284.718 2.895-3.98 3.224-4.593 1.127-.408-1.297-.112-1.899 1.885-2.411zm10.404.537c3.089-1.719 5.118 2.97 2.123 3.787-1.698.41-5.014-2.27-2.123-3.787zm12.904.722c.728 4.496-3.983 2.724-3.995.824-.111-1.9 2.686-2.416 3.995-.824zm51.661.695c-.591 1.404.508 1.397.315 2.398-.487 2.303-4.089 1.825-4.6.028-.411-1.798 2.473-4.415 4.285-2.426zm49.607 1c-.665 5.804-7.103-.457-2.91-1.583 1.198-.307 2.006.888 2.91 1.583zm-43.692 1.364c.089-1.8.781-3.004 1.88-3.211 5.393-1.133 1.85 8.189-1.88 3.211zm14.204.714c-3.191 1.42-4.823-3.77-1.926-4.288 1.698-.31 5.217 2.768 1.926 4.288zm20.381-3.123c.221 3.399-4.278 3.526-4.593 1.128-.211-1.799 3.181-3.22 4.593-1.128zM153.181 6.03c-.225-4.198 5.381-3.232 5.097-.53-.188 1.901-3.886 2.323-5.097.53zm45.286-2.473c1.026 4.194-3.476 3.92-3.988 1.924-.512-1.897 2.277-3.814 3.988-1.924zm-53.08 3.321c-.7.104-2.4.014-2.708-1.284-.718-2.895 3.98-3.224 4.593-1.128.408 1.298.111 1.9-1.885 2.412zm-10.404-.538c-3.089 1.72-5.118-2.968-2.123-3.786 1.698-.41 5.014 2.27 2.123 3.787zm-12.904-.721c-.728-4.496 3.983-2.724 3.995-.824.111 1.9-2.686 2.416-3.995.824z" fill="#FBD83F"/></svg>
